icons/desktop/16/svg/page-scrolling-16.svg

<svg width="16" height="16" viewBox="0 0 16 16" fill="none" xmlns="http://www.w3.org/2000/svg">
<path d="M7.72168 3.22363C7.87467 3.07066 8.12435 3.07066 8.27734 3.22363L10.3838 5.33105C10.6307 5.57795 10.4562 6.00063 10.1064 6.00098H8.75V9.99902H10.1064C10.4562 9.99937 10.6307 10.422 10.3838 10.6689L8.27734 12.7764C8.12435 12.9293 7.87467 12.9293 7.72168 12.7764L5.61621 10.6699C5.36932 10.423 5.54386 10.0004 5.89355 10H7.25V6H5.89355C5.54386 5.99963 5.36932 5.57697 5.61621 5.33008L7.72168 3.22363Z" fill="black"/>
<path fill-rule="evenodd" clip-rule="evenodd" d="M8 0C9.05382 0 10.2711 0.0589861 11.6152 0.230469L11.6143 0.231445C12.9892 0.406258 14 1.59081 14 2.95801V13.042C14 14.4362 12.9615 15.6005 11.585 15.7744C10.5075 15.911 9.30603 16 8 16C6.94618 16 5.7289 15.941 4.38477 15.7695C3.01026 15.5944 2 14.4089 2 13.042V2.95801C2 1.56377 3.03853 0.399533 4.41504 0.225586C5.49247 0.0889979 6.69397 0 8 0ZM8 1.5C6.76228 1.5 5.62393 1.5845 4.60352 1.71387C3.97003 1.79392 3.5 2.32625 3.5 2.95801V13.042C3.5 13.6728 3.96811 14.205 4.5752 14.2822C5.84894 14.4447 7.0019 14.5 8 14.5C9.23772 14.5 10.3761 14.4155 11.3965 14.2861C12.03 14.2061 12.5 13.6738 12.5 13.042V2.95801C12.5 2.32732 12.0327 1.79512 11.4258 1.71777C10.152 1.55529 8.9981 1.5 8 1.5Z" fill="black"/>
</svg>

<!-- This Source Code Form is subject to the terms of the Mozilla Public
   - License, v. 2.0. If a copy of the MPL was not distributed with this
   - file, You can obtain one at http://mozilla.org/MPL/2.0/. -->
<svg xmlns="http://www.w3.org/2000/svg" width="16" height="16" fill="context-fill" fill-opacity="context-fill-opacity" viewBox="0 0 16 16">
    <path d="M7.722 3.224a.394.394 0 0 1 .555 0l2.107 2.107a.392.392 0 0 1-.278.67H8.75v3.998h1.356c.35 0 .525.423.278.67l-2.107 2.107a.394.394 0 0 1-.555 0L5.616 10.67a.392.392 0 0 1 .278-.67H7.25V6H5.894a.393.393 0 0 1-.278-.67z" />
    <path fill-rule="evenodd" d="M8 0c1.054 0 2.271.059 3.615.23v.001C12.988.406 14 1.591 14 2.958v10.084a2.755 2.755 0 0 1-2.415 2.732 28.5 28.5 0 0 1-7.2-.004C3.01 15.594 2 14.409 2 13.042V2.958A2.755 2.755 0 0 1 4.415.226 29 29 0 0 1 8 0m0 1.5a27 27 0 0 0-3.396.214A1.255 1.255 0 0 0 3.5 2.958v10.084c0 .63.468 1.163 1.075 1.24a27 27 0 0 0 6.821.004 1.255 1.255 0 0 0 1.104-1.244V2.958c0-.63-.467-1.163-1.074-1.24A27 27 0 0 0 8 1.5" clip-rule="evenodd" />
</svg>
